img/svg/icon8.svg

<svg xmlns="http://www.w3.org/2000/svg" preserveAspectRatio="xMidYMid" width="46" height="52" viewBox="0 0 46 52"><defs><style>.cls-2 { fill: #000000; stroke: #ff4700; stroke-linejoin: round; stroke-width: 1px; opacity: 0.8; fill-opacity: 0; }</style></defs><path d="M41.826 35.363l-4.819-2.808 4.068-2.442c.654-.318.856-1.204.484-1.855-.378-.667-1.195-.807-1.816-.442l-5.423 3.203-8.62-5.058 8.62-5.006 5.423 3.198c.17.126.388.198.63.198.46 0 .871-.218 1.186-.635.364-.662.17-1.537-.484-1.854l-4.068-2.443 4.819-2.808c.628-.365.844-1.182.484-1.854-.343-.646-1.193-.87-1.84-.49l-4.843 2.834-.072-4.886c-.012-.756-.581-1.365-1.332-1.365-.75 0-1.337.656-1.331 1.365l.048 6.448-8.571 5.006v-10.157l5.399-3.105c.63-.359.905-1.198.533-1.854-.378-.667-1.155-.865-1.816-.49l-4.116 2.344v-5.542c0-.756-.606-1.365-1.356-1.365-.751 0-1.332.609-1.332 1.365v5.594l-4.261-2.396c-.664-.37-1.419-.161-1.792.49-.378.667-.143 1.484.508 1.854l5.545 3.151v10.059l-8.765-5.099.049-6.303c.073-.709-.557-1.365-1.307-1.365h-.049c-.702 0-1.324.609-1.332 1.365l-.048 4.74-4.721-2.735c-.659-.385-1.473-.156-1.816.484-.36.678-.174 1.474.484 1.86l4.77 2.782-4.165 2.516c-.654.317-.858 1.203-.46 1.854.256.422.629.635 1.138.635.266 0 .488-.067.702-.198l5.448-3.245 8.741 5.053-8.741 5.105-5.448-3.25c-.654-.386-1.497-.204-1.84.442-.359.672-.164 1.48.46 1.855l4.165 2.489-4.77 2.808c-.656.385-.869 1.198-.484 1.86.269.458.629.682 1.137.682.121 0 .364-.073.679-.198l4.721-2.735.048 4.74c.008.756.63 1.339 1.332 1.339h.049c.75 0 1.312-.63 1.307-1.391l-.049-6.297 8.765-5.053v10.006l-5.545 3.152c-.661.375-.893 1.193-.508 1.854.269.464.63.688 1.138.688.242 0 .465-.042.654-.151l4.261-2.438v5.688c0 .756.581 1.344 1.332 1.344.75 0 1.356-.588 1.356-1.344v-5.594l4.116 2.344c.188.109.411.151.629.151.533 0 .925-.219 1.187-.688.367-.656.13-1.479-.533-1.854l-5.399-3.053v-10.157l8.571 5.006-.048 6.396c-.007.761.581 1.391 1.331 1.391.751 0 1.32-.583 1.332-1.339l.072-4.912 4.843 2.86c.187.11.436.146.702.146.508 0 .881-.214 1.138-.636.397-.65.144-1.489-.484-1.854z" id="path-1" class="cls-2" fill-rule="evenodd"/></svg>

<svg xmlns="http://www.w3.org/2000/svg" xmlns:xlink="http://www.w3.org/1999/xlink" preserveAspectRatio="xMidYMid" width="46" height="52" viewBox="0 0 46 52">
  <defs>
    <style>

      .cls-2 {
        fill: #000000;
        stroke: #ff4700;
        stroke-linejoin: round;
        stroke-width: 1px;
        opacity: 0.8;
        fill-opacity: 0;
      }
    </style>
  </defs>
  <path d="M41.826,35.363 C41.826,35.363 37.007,32.555 37.007,32.555 C37.007,32.555 41.075,30.113 41.075,30.113 C41.729,29.795 41.931,28.909 41.559,28.258 C41.181,27.591 40.364,27.451 39.743,27.816 C39.743,27.816 34.320,31.019 34.320,31.019 C34.320,31.019 25.700,25.961 25.700,25.961 C25.700,25.961 34.320,20.955 34.320,20.955 C34.320,20.955 39.743,24.153 39.743,24.153 C39.913,24.279 40.131,24.351 40.373,24.351 C40.833,24.351 41.244,24.133 41.559,23.716 C41.923,23.054 41.729,22.179 41.075,21.862 C41.075,21.862 37.007,19.419 37.007,19.419 C37.007,19.419 41.826,16.611 41.826,16.611 C42.454,16.246 42.670,15.429 42.310,14.757 C41.967,14.111 41.117,13.887 40.470,14.267 C40.470,14.267 35.627,17.101 35.627,17.101 C35.627,17.101 35.555,12.215 35.555,12.215 C35.543,11.459 34.974,10.850 34.223,10.850 C33.473,10.850 32.886,11.506 32.892,12.215 C32.892,12.215 32.940,18.663 32.940,18.663 C32.940,18.663 24.369,23.669 24.369,23.669 C24.369,23.669 24.369,13.512 24.369,13.512 C24.369,13.512 29.768,10.407 29.768,10.407 C30.398,10.048 30.673,9.209 30.301,8.553 C29.923,7.886 29.146,7.688 28.485,8.063 C28.485,8.063 24.369,10.407 24.369,10.407 C24.369,10.407 24.369,4.865 24.369,4.865 C24.369,4.109 23.763,3.500 23.013,3.500 C22.262,3.500 21.681,4.109 21.681,4.865 C21.681,4.865 21.681,10.459 21.681,10.459 C21.681,10.459 17.420,8.063 17.420,8.063 C16.756,7.693 16.001,7.902 15.628,8.553 C15.250,9.220 15.485,10.037 16.136,10.407 C16.136,10.407 21.681,13.558 21.681,13.558 C21.681,13.558 21.681,23.617 21.681,23.617 C21.681,23.617 12.916,18.518 12.916,18.518 C12.916,18.518 12.965,12.215 12.965,12.215 C13.038,11.506 12.408,10.850 11.658,10.850 C11.658,10.850 11.609,10.850 11.609,10.850 C10.907,10.850 10.285,11.459 10.277,12.215 C10.277,12.215 10.229,16.955 10.229,16.955 C10.229,16.955 5.508,14.220 5.508,14.220 C4.849,13.835 4.035,14.064 3.692,14.704 C3.332,15.382 3.518,16.178 4.176,16.564 C4.176,16.564 8.946,19.346 8.946,19.346 C8.946,19.346 4.781,21.862 4.781,21.862 C4.127,22.179 3.923,23.065 4.321,23.716 C4.577,24.138 4.950,24.351 5.459,24.351 C5.725,24.351 5.947,24.284 6.161,24.153 C6.161,24.153 11.609,20.908 11.609,20.908 C11.609,20.908 20.350,25.961 20.350,25.961 C20.350,25.961 11.609,31.066 11.609,31.066 C11.609,31.066 6.161,27.816 6.161,27.816 C5.507,27.430 4.664,27.612 4.321,28.258 C3.962,28.930 4.157,29.738 4.781,30.113 C4.781,30.113 8.946,32.602 8.946,32.602 C8.946,32.602 4.176,35.410 4.176,35.410 C3.520,35.795 3.307,36.608 3.692,37.270 C3.961,37.728 4.321,37.952 4.829,37.952 C4.950,37.952 5.193,37.879 5.508,37.754 C5.508,37.754 10.229,35.019 10.229,35.019 C10.229,35.019 10.277,39.759 10.277,39.759 C10.285,40.515 10.907,41.098 11.609,41.098 C11.609,41.098 11.658,41.098 11.658,41.098 C12.408,41.098 12.970,40.468 12.965,39.707 C12.965,39.707 12.916,33.410 12.916,33.410 C12.916,33.410 21.681,28.357 21.681,28.357 C21.681,28.357 21.681,38.363 21.681,38.363 C21.681,38.363 16.136,41.515 16.136,41.515 C15.475,41.890 15.243,42.708 15.628,43.369 C15.897,43.833 16.258,44.057 16.766,44.057 C17.008,44.057 17.231,44.015 17.420,43.906 C17.420,43.906 21.681,41.468 21.681,41.468 C21.681,41.468 21.681,47.156 21.681,47.156 C21.681,47.912 22.262,48.500 23.013,48.500 C23.763,48.500 24.369,47.912 24.369,47.156 C24.369,47.156 24.369,41.562 24.369,41.562 C24.369,41.562 28.485,43.906 28.485,43.906 C28.673,44.015 28.896,44.057 29.114,44.057 C29.647,44.057 30.039,43.838 30.301,43.369 C30.668,42.713 30.431,41.890 29.768,41.515 C29.768,41.515 24.369,38.462 24.369,38.462 C24.369,38.462 24.369,28.305 24.369,28.305 C24.369,28.305 32.940,33.311 32.940,33.311 C32.940,33.311 32.892,39.707 32.892,39.707 C32.885,40.468 33.473,41.098 34.223,41.098 C34.974,41.098 35.543,40.515 35.555,39.759 C35.555,39.759 35.627,34.847 35.627,34.847 C35.627,34.847 40.470,37.707 40.470,37.707 C40.657,37.817 40.906,37.853 41.172,37.853 C41.680,37.853 42.053,37.639 42.310,37.217 C42.707,36.567 42.454,35.728 41.826,35.363 Z" id="path-1" class="cls-2" fill-rule="evenodd"/>
</svg>
